assets/img/braze_icons/bus.svg

<svg fill="none" height="24" viewBox="0 0 24 24" width="24" xmlns="http://www.w3.org/2000/svg"><g fill="#801ed7"><path d="m7.7587 1h8.4826c.8049-.000012 1.4693-.000021 2.0105.0442.5621.04592 1.0788.14448 1.5642.39178.7526.38349 1.3645.99541 1.748 1.74806.073.14332.1331.28938.1827.43853.0793.23875.119.35813.0834.49952-.0278.11007-.1204.23853-.2161.29954-.123.07837-.2756.07837-.5808.07837h-18.0664c-.30521 0-.45781 0-.58076-.07837-.09572-.06101-.1884-.18947-.21611-.29954-.03561-.14139.00406-.26077.0834-.49952.04956-.14915.10961-.29521.18264-.43853.38349-.75265.99541-1.36457 1.74806-1.74806.48534-.2473 1.00204-.34586 1.56414-.39178.54119-.044221 1.20557-.044212 2.01053-.0442z"/><path d="m2.79951 6.5c-.27984 0-.41977 0-.52671.05448-.09404.04791-.17057.12441-.2185.21844-.05451.10693-.05454.2468-.05462.52655-.00026.96684.00008 1.93369.00024 2.90053.00004.2801.00007.4201.05457.527.04795.0941.12442.1706.2185.2185.10695.0545.24697.0545.527.0545h18.40001c.28 0 .42 0 .527-.0545.0941-.0479.1705-.1244.2185-.2185.0545-.1069.0545-.2469.0546-.527.0001-.96684.0005-1.93368.0002-2.90052-.0001-.27975-.0001-.41963-.0546-.52656-.048-.09403-.1245-.17053-.2185-.21844-.107-.05448-.2469-.05448-.5267-.05448z"/><path clip-rule="evenodd" d="m22 13.8c0-.28 0-.42-.0545-.527-.0479-.0941-.1244-.1706-.2185-.2185-.107-.0545-.247-.0545-.527-.0545h-18.40001c-.28002 0-.42004 0-.52699.0545-.09408.0479-.17057.1244-.21851.2185-.0545.107-.0545.247-.0545.527v.4413c-.00001.805-.00002 1.4693.0442 2.0105.04592.5621.14449 1.0788.39178 1.5642.35173.6903.89563 1.2622 1.56402 1.6481l-.00001 1.759c-.00004.1192-.0001.2614.01014.3867.01187.1452.04231.3532.15336.5712.14381.2822.37328.5117.65552.6555.21795.1111.42594.1415.57116.1534.12529.0102.2675.0102.3866.0101h1.94637c.1191.0001.2614.0001.38669-.0101.14522-.0119.35321-.0423.57116-.1534.28224-.1438.51171-.3733.65552-.6555.11105-.218.14149-.426.15336-.5712.01024-.1253.01018-.2675.01014-.3867l-.00001-1.2231h5.00001v1.2231c-.0001.1191-.0001.2614.0101.3867.0119.1452.0423.3532.1534.5712.1438.2822.3733.5117.6555.6555.2179.1111.4259.1415.5712.1534.1252.0102.2675.0102.3866.0101h1.9463c.1191.0001.2614.0001.3867-.0101.1452-.0119.3532-.0423.5712-.1534.2822-.1438.5117-.3733.6555-.6555.111-.218.1415-.426.1534-.5712.0102-.1253.0101-.2675.0101-.3866v-1.7591c.6684-.3859 1.2123-.9578 1.564-1.6481.2473-.4854.3459-1.0021.3918-1.5642.0442-.5412.0442-1.2055.0442-2.0105zm-16.50001 1.7c0-.5523.44772-1 1-1h1.5c.55229 0 1 .4477 1 1s-.44771 1-1 1h-1.5c-.55228 0-1-.4477-1-1zm10.50001-1c-.5523 0-1 .4477-1 1s.4477 1 1 1h1.5c.5523 0 1-.4477 1-1s-.4477-1-1-1z" fill-rule="evenodd"/></g></svg>

<svg width="24" height="24" viewBox="0 0 24 24" fill="none" xmlns="http://www.w3.org/2000/svg">
<path d="M7.7587 1H16.2413C17.0462 0.999988 17.7106 0.999979 18.2518 1.0442C18.8139 1.09012 19.3306 1.18868 19.816 1.43598C20.5686 1.81947 21.1805 2.43139 21.564 3.18404C21.637 3.32736 21.6971 3.47342 21.7467 3.62257C21.826 3.86132 21.8657 3.9807 21.8301 4.12209C21.8023 4.23216 21.7097 4.36062 21.614 4.42163C21.491 4.5 21.3384 4.5 21.0332 4.5H2.9668C2.66159 4.5 2.50899 4.5 2.38604 4.42163C2.29032 4.36062 2.19764 4.23216 2.16993 4.12209C2.13432 3.9807 2.17399 3.86132 2.25333 3.62257C2.30289 3.47342 2.36294 3.32736 2.43597 3.18404C2.81946 2.43139 3.43138 1.81947 4.18403 1.43598C4.66937 1.18868 5.18607 1.09012 5.74817 1.0442C6.28936 0.999979 6.95374 0.999988 7.7587 1Z" fill="#801ED7"/>
<path d="M2.79951 6.5C2.51967 6.5 2.37974 6.5 2.2728 6.55448C2.17876 6.60239 2.10223 6.67889 2.0543 6.77292C1.99979 6.87985 1.99976 7.01972 1.99968 7.29947C1.99942 8.26631 1.99976 9.23316 1.99992 10.2C1.99996 10.4801 1.99999 10.6201 2.05449 10.727C2.10244 10.8211 2.17891 10.8976 2.27299 10.9455C2.37994 11 2.51996 11 2.79999 11H21.2C21.48 11 21.62 11 21.727 10.9455C21.8211 10.8976 21.8975 10.8211 21.9455 10.727C22 10.6201 22 10.4801 22.0001 10.2C22.0002 9.23316 22.0006 8.26632 22.0003 7.29948C22.0002 7.01973 22.0002 6.87985 21.9457 6.77292C21.8977 6.67889 21.8212 6.60239 21.7272 6.55448C21.6202 6.5 21.4803 6.5 21.2005 6.5H2.79951Z" fill="#801ED7"/>
<path fill-rule="evenodd" clip-rule="evenodd" d="M22 13.8C22 13.52 22 13.38 21.9455 13.273C21.8976 13.1789 21.8211 13.1024 21.727 13.0545C21.62 13 21.48 13 21.2 13H2.79999C2.51997 13 2.37995 13 2.273 13.0545C2.17892 13.1024 2.10243 13.1789 2.05449 13.273C1.99999 13.38 1.99999 13.52 1.99999 13.8V14.2413C1.99998 15.0463 1.99997 15.7106 2.04419 16.2518C2.09011 16.8139 2.18868 17.3306 2.43597 17.816C2.7877 18.5063 3.3316 19.0782 3.99999 19.4641L3.99998 21.2231C3.99994 21.3423 3.99988 21.4845 4.01012 21.6098C4.02199 21.755 4.05243 21.963 4.16348 22.181C4.30729 22.4632 4.53676 22.6927 4.819 22.8365C5.03695 22.9476 5.24494 22.978 5.39016 22.9899C5.51545 23.0001 5.65766 23.0001 5.77676 23H7.72313C7.84223 23.0001 7.98453 23.0001 8.10982 22.9899C8.25504 22.978 8.46303 22.9476 8.68098 22.8365C8.96322 22.6927 9.19269 22.4632 9.3365 22.181C9.44755 21.963 9.47799 21.755 9.48986 21.6098C9.5001 21.4845 9.50004 21.3423 9.5 21.2231L9.49999 20H14.5L14.5 21.2231C14.4999 21.3422 14.4999 21.4845 14.5101 21.6098C14.522 21.755 14.5524 21.963 14.6635 22.181C14.8073 22.4632 15.0368 22.6927 15.319 22.8365C15.5369 22.9476 15.7449 22.978 15.8902 22.9899C16.0154 23.0001 16.1577 23.0001 16.2768 23H18.2231C18.3422 23.0001 18.4845 23.0001 18.6098 22.9899C18.755 22.978 18.963 22.9476 19.181 22.8365C19.4632 22.6927 19.6927 22.4632 19.8365 22.181C19.9475 21.963 19.978 21.755 19.9899 21.6098C20.0001 21.4845 20 21.3423 20 21.2232L20 19.4641C20.6684 19.0782 21.2123 18.5063 21.564 17.816C21.8113 17.3306 21.9099 16.8139 21.9558 16.2518C22 15.7106 22 15.0463 22 14.2413V13.8ZM5.49999 15.5C5.49999 14.9477 5.94771 14.5 6.49999 14.5H7.99999C8.55228 14.5 8.99999 14.9477 8.99999 15.5C8.99999 16.0523 8.55228 16.5 7.99999 16.5H6.49999C5.94771 16.5 5.49999 16.0523 5.49999 15.5ZM16 14.5C15.4477 14.5 15 14.9477 15 15.5C15 16.0523 15.4477 16.5 16 16.5H17.5C18.0523 16.5 18.5 16.0523 18.5 15.5C18.5 14.9477 18.0523 14.5 17.5 14.5H16Z" fill="#801ED7"/>
</svg>
